X: 26374
T: Merry Blacksmith, The
R: reel
M: 4/4
K: Dmajor
|:A2|d2 dA BAFA|ABdA BAFA|ABde f2 ed|Beed egfe|
d2 dA BAFA|ABdA BAFA|ABde fdec|dBAF D2:|
|:fg|a2 ag f2 fe|d2 dA BAFA|ABde f2 ed|Beed egfe|
a2 ag f2 fe|d2 dA BAFA|ABde fdec|dBAF D2:|

